X:443
M:6/8
L:1/8
K:G
c|BcA G2D|E2D G2c|BcA G2B|Add d2c|BcA G2D|E2D G2c|
g2e a2g|fge dec:|

